icon-themes/sifr_svg/cmd/lc_redactedexportblack.svg

<svg viewBox="0 0 24 24" xmlns="http://www.w3.org/2000/svg"><path d="m3 2v21h17v-2h-2-13v-17h8v5h5 2v-1l-6-6zm3 4v2h6v-2zm2 4a2 2 0 0 0 -2 2 2 2 0 0 0 2 2 2 2 0 0 0 2-2 2 2 0 0 0 -2-2zm10 0v1c-.00004.26531.09314.53057.28125.71875l2.28125 2.28125h-8.5625v2h8.5625l-2.28125 2.28125c-.18815.18817-.28125.327879-.28125.71875v1h1c.26531-.00003.53058-.09311.71875-.28125l4-4 .28125-.28125v-.875l-.28125-.28125-4-4c-.18818-.18821-.456291-.28125-.71875-.28125zm-6 1v2h5v-2zm-6 6v2h5v-2z" fill="#555753"/></svg>

<svg viewBox="0 0 24 24" xmlns="http://www.w3.org/2000/svg">
  <path
     style="fill:#555753"
     d="M 3 2 L 3 23 L 20 23 L 20 21 L 18 21 L 5 21 L 5 4 L 13 4 L 13 9 L 18 9 L 20 9 L 20 8 L 14 2 L 3 2 z M 6 6 L 6 8 L 12 8 L 12 6 L 6 6 z M 8 10 A 2 2 0 0 0 6 12 A 2 2 0 0 0 8 14 A 2 2 0 0 0 10 12 A 2 2 0 0 0 8 10 z M 18 10 L 18 11 C 17.99996 11.26531 18.09314 11.53057 18.28125 11.71875 L 20.5625 14 L 12 14 L 12 16 L 20.5625 16 L 18.28125 18.28125 C 18.0931 18.46942 18 18.609129 18 19 L 18 20 L 19 20 C 19.26531 19.99997 19.53058 19.90689 19.71875 19.71875 L 23.71875 15.71875 L 24 15.4375 L 24 14.5625 L 23.71875 14.28125 L 19.71875 10.28125 C 19.53057 10.09304 19.262459 10 19 10 L 18 10 z M 12 11 L 12 13 L 17 13 L 17 11 L 12 11 z M 6 17 L 6 19 L 11 19 L 11 17 L 6 17 z "
     />
</svg>
